src/images_karasa_jaga_svg/sw/res/sf05.svg

<svg enable-background="new 0 0 128 128" height="16" viewBox="0 0 16 16" width="16" xmlns="http://www.w3.org/2000/svg" xmlns:xlink="http://www.w3.org/1999/xlink"><linearGradient id="a" gradientUnits="userSpaceOnUse" x1="7.093015" x2="7.093015" y1="-274.818525" y2="-268.055367"><stop offset="0" stop-color="#06f"/><stop offset="1" stop-color="#80b3ff"/></linearGradient><linearGradient id="b" gradientUnits="userSpaceOnUse" x1="96" x2="88.000198" y1="104" y2="96.000198"><stop offset="0" stop-color="#888a85"/><stop offset=".0072" stop-color="#8c8e89"/><stop offset=".0673" stop-color="#abaca9"/><stop offset=".1347" stop-color="#c5c6c4"/><stop offset=".2115" stop-color="#dbdbda"/><stop offset=".3012" stop-color="#ebebeb"/><stop offset=".4122" stop-color="#f7f7f6"/><stop offset=".5679" stop-color="#fdfdfd"/><stop offset="1" stop-color="#fff"/></linearGradient><radialGradient id="c" cx="110" cy="112.3047" gradientUnits="userSpaceOnUse" r="139.55859"><stop offset="0" stop-color="#535557"/><stop offset=".11366145" stop-color="#5b5b5d"/><stop offset=".20296688" stop-color="#848484" stop-opacity=".023529"/><stop offset=".2363" stop-color="#909090" stop-opacity="0"/><stop offset=".2722" stop-color="#8b8b8b" stop-opacity="0"/><stop offset=".5313" stop-color="#fafafa" stop-opacity=".058824"/><stop offset=".8449" stop-color="#ebecec" stop-opacity=".297794"/><stop offset="1" stop-color="#e1e2e3" stop-opacity=".169118"/></radialGradient><radialGradient id="d" cx="110" cy="112.3047" gradientUnits="userSpaceOnUse" r="139.5585"><stop offset="0" stop-color="#656565"/><stop offset=".24349999" stop-color="#fcfcfc"/><stop offset=".2722" stop-color="#fff"/></radialGradient><filter id="e" height="1.247155" width="1.247155" x="-.123577" y="-.123577"><feGaussianBlur stdDeviation="1.7720846"/></filter><filter id="f"><feGaussianBlur stdDeviation=".90565481"/></filter><linearGradient id="g" gradientUnits="userSpaceOnUse" x1="85.219681" x2="61.336319" y1="93.219681" y2="69.336319"><stop offset="0"/><stop offset="1" stop-color="#393b38"/></linearGradient><filter id="h"><feGaussianBlur stdDeviation=".4901192"/></filter><g transform="scale(.125)"><g fill="none" stroke="#000" stroke-linejoin="round"><path d="m8 16v102c0 1.104.896 2 2 2h75.1875c.530003 0 1.03125-.21875 1.40625-.59375.000001 0 11.90625-9.90625 17.40625-15.40625s15.40625-17.40625 15.40625-17.40625c.375-.374999.59375-.87625.59375-1.40625v-69.1875z" opacity=".1" stroke-width="16"/><path d="m8 16v102c0 1.104.896 2 2 2h75.1875c.530003 0 1.03125-.21875 1.40625-.59375.000001 0 11.90625-9.90625 17.40625-15.40625s15.40625-17.40625 15.40625-17.40625c.375-.374999.59375-.87625.59375-1.40625v-69.1875z" opacity=".15" stroke-width="12"/><path d="m8 16v102c0 1.104.896 2 2 2h75.1875c.530003 0 1.03125-.21875 1.40625-.59375.000001 0 11.90625-9.90625 17.40625-15.40625s15.40625-17.40625 15.40625-17.40625c.375-.374999.59375-.87625.59375-1.40625v-69.1875z" opacity=".2" stroke-width="8"/><path d="m8 16v102c0 1.104.896 2 2 2h75.1875c.530003 0 1.03125-.21875 1.40625-.59375.000001 0 11.90625-9.90625 17.40625-15.40625s15.40625-17.40625 15.40625-17.40625c.375-.374999.59375-.87625.59375-1.40625v-69.1875z" opacity=".25" stroke-width="4"/></g><path d="m8 16v102c0 1.104.896 2 2 2h75.172c.53 0 1.039-.211 1.414-.586l32.828-32.828c.375-.375.586-.884.586-1.414v-69.172z" fill="url(#d)"/><path d="m17 24c-.551 0-1 .449-1 1v87c0 .552.449 1 1 1l74.172-1c.263 0 .521-.106.707-.293l20.828-20.828c.187-.187.293-.444.293-.707v-65.172c0-.551-.448-1-1-1z" fill="url(#c)"/><g fill="#3b3b3b" transform="matrix(.8125 0 0 1 23.5 0)"><path d="m40 32h64v8h-64z"/><path d="m40 48h48v8h-48z"/></g><g fill="#3b3b3b" transform="matrix(.8125 0 0 1 23.5 0)"><path d="m40 72h64v8h-64z"/><path d="m39.922626 87.495369h48v8h-48z"/></g><g transform="matrix(3.7795276 0 0 3.7795276 6.821048 -987.7897)"><circle cx="6.63171" cy="-272.99435" fill="none" r="1.470957" stroke="url(#a)" stroke-linecap="round" stroke-linejoin="round" stroke-width="5.88383" transform="scale(1 -1)"/><circle cx="6.63171" cy="272.99435" fill="#bfd9ff" r="1.470957"/></g><g transform="matrix(3.7795276 0 0 3.7795276 6.87835 -948.04201)"><circle cx="6.63171" cy="-272.99435" fill="none" r="1.470957" stroke="url(#a)" stroke-linecap="round" stroke-linejoin="round" stroke-width="5.88383" transform="scale(1 -1)"/><circle cx="6.63171" cy="272.99435" fill="#bfd9ff" r="1.470957"/></g><g transform="translate(8)"><path d="m111.414 86.586c.25-.25-26.379-1.586-31.414-1.586-1.654 0-3 1.346-3 3 0 5.035 1.336 31.664 1.586 31.414z" filter="url(#e)" opacity=".906849"/><path d="m111.414 86.586c.375-.375-21.97-.586-31.414-.586-1.103 0-2 .897-2 2 0 9.444.211 31.789.586 31.414z" filter="url(#f)" opacity=".2"/><path d="m111.414 86.586c.239-.239-21.607.414-31.414.414-.553 0-1 .447-1 1 0 9.807-.653 31.653-.414 31.414z" fill="url(#g)" filter="url(#h)" opacity=".1"/><path d="m78.586 119.414s11.914-9.914 17.414-15.414 15.414-17.414 15.414-17.414-21.164 1.414-31.414 1.414c0 10.25-1.414 31.414-1.414 31.414z" fill="url(#b)"/></g></g></svg>

<?xml version="1.0" encoding="UTF-8" standalone="no"?>
<svg
   xmlns:dc="http://purl.org/dc/elements/1.1/"
   xmlns:cc="http://creativecommons.org/ns#"
   xmlns:rdf="http://www.w3.org/1999/02/22-rdf-syntax-ns#"
   xmlns:svg="http://www.w3.org/2000/svg"
   xmlns="http://www.w3.org/2000/svg"
   xmlns:xlink="http://www.w3.org/1999/xlink"
   xmlns:sodipodi="http://sodipodi.sourceforge.net/DTD/sodipodi-0.dtd"
   xmlns:inkscape="http://www.inkscape.org/namespaces/inkscape"
   enable-background="new 0 0 128 128"
   height="128"
   viewBox="0 0 128 128"
   width="128"
   version="1.1"
   id="svg90"
   sodipodi:docname="sf05.svg"
   inkscape:version="0.92.3 (unknown)"
   inkscape:export-filename="/home/rizmut/Dokumen/Rizmut/Github/libreoffice-style-karasa-jaga/build/images_karasa_jaga/sw/res/sf05.png"
   inkscape:export-xdpi="12"
   inkscape:export-ydpi="12">
  <metadata
     id="metadata96">
    <rdf:RDF>
      <cc:Work
         rdf:about="">
        <dc:format>image/svg+xml</dc:format>
        <dc:type
           rdf:resource="http://purl.org/dc/dcmitype/StillImage" />
        <dc:title></dc:title>
      </cc:Work>
    </rdf:RDF>
  </metadata>
  <defs
     id="defs94">
    <linearGradient
       inkscape:collect="always"
       xlink:href="#linearGradient4372"
       id="linearGradient4637"
       gradientUnits="userSpaceOnUse"
       gradientTransform="matrix(0.98063819,0,0,0.98063819,-516.53881,-336.24591)"
       x1="533.97046"
       y1="62.640213"
       x2="533.97046"
       y2="69.536903" />
    <linearGradient
       inkscape:collect="always"
       id="linearGradient4372">
      <stop
         style="stop-color:#0066ff;stop-opacity:1;"
         offset="0"
         id="stop4374" />
      <stop
         style="stop-color:#80b3ff;stop-opacity:1"
         offset="1"
         id="stop4376" />
    </linearGradient>
    <linearGradient
       inkscape:collect="always"
       xlink:href="#linearGradient4372"
       id="linearGradient1038"
       gradientUnits="userSpaceOnUse"
       gradientTransform="matrix(0.98063819,0,0,0.98063819,-516.53881,-336.24591)"
       x1="533.97046"
       y1="62.640213"
       x2="533.97046"
       y2="69.536903" />
  </defs>
  <sodipodi:namedview
     pagecolor="#ffffff"
     bordercolor="#666666"
     borderopacity="1"
     objecttolerance="10"
     gridtolerance="10"
     guidetolerance="10"
     inkscape:pageopacity="0"
     inkscape:pageshadow="2"
     inkscape:window-width="1366"
     inkscape:window-height="706"
     id="namedview92"
     showgrid="true"
     inkscape:snap-global="true"
     inkscape:zoom="2.6074563"
     inkscape:cx="125.35381"
     inkscape:cy="34.005864"
     inkscape:window-x="0"
     inkscape:window-y="0"
     inkscape:window-maximized="1"
     inkscape:current-layer="svg90">
    <inkscape:grid
       type="xygrid"
       id="grid903"
       spacingx="4"
       spacingy="4"
       empspacing="2" />
  </sodipodi:namedview>
  <linearGradient
     id="a"
     gradientUnits="userSpaceOnUse"
     x1="96"
     x2="88.0002"
     y1="104"
     y2="96.0002">
    <stop
       offset="0"
       stop-color="#888a85"
       id="stop2" />
    <stop
       offset=".0072"
       stop-color="#8c8e89"
       id="stop4" />
    <stop
       offset=".0673"
       stop-color="#abaca9"
       id="stop6" />
    <stop
       offset=".1347"
       stop-color="#c5c6c4"
       id="stop8" />
    <stop
       offset=".2115"
       stop-color="#dbdbda"
       id="stop10" />
    <stop
       offset=".3012"
       stop-color="#ebebeb"
       id="stop12" />
    <stop
       offset=".4122"
       stop-color="#f7f7f6"
       id="stop14" />
    <stop
       offset=".5679"
       stop-color="#fdfdfd"
       id="stop16" />
    <stop
       offset="1"
       stop-color="#fff"
       id="stop18" />
  </linearGradient>
  <radialGradient
     id="b"
     cx="110"
     cy="112.3047"
     gradientUnits="userSpaceOnUse"
     r="139.55859">
    <stop
       offset="0"
       stop-color="#535557"
       id="stop21" />
    <stop
       offset=".11366145"
       stop-color="#5b5b5d"
       id="stop23" />
    <stop
       offset=".20296688"
       stop-color="#848484"
       stop-opacity=".023529"
       id="stop25" />
    <stop
       offset=".2363"
       stop-color="#909090"
       stop-opacity="0"
       id="stop27" />
    <stop
       offset=".2722"
       stop-color="#8b8b8b"
       stop-opacity="0"
       id="stop29" />
    <stop
       offset=".5313"
       stop-color="#fafafa"
       stop-opacity=".058824"
       id="stop31" />
    <stop
       offset=".8449"
       stop-color="#ebecec"
       stop-opacity=".297794"
       id="stop33" />
    <stop
       offset="1"
       stop-color="#e1e2e3"
       stop-opacity=".169118"
       id="stop35" />
  </radialGradient>
  <radialGradient
     id="c"
     cx="110"
     cy="112.3047"
     gradientUnits="userSpaceOnUse"
     r="139.5585">
    <stop
       offset="0"
       stop-color="#656565"
       id="stop38" />
    <stop
       offset=".24349999"
       stop-color="#fcfcfc"
       id="stop40" />
    <stop
       offset=".2722"
       stop-color="#fff"
       id="stop42" />
  </radialGradient>
  <filter
     id="d"
     height="1.247155"
     width="1.247155"
     x="-.123577"
     y="-.123577">
    <feGaussianBlur
       stdDeviation="1.7720846"
       id="feGaussianBlur45" />
  </filter>
  <filter
     id="e">
    <feGaussianBlur
       stdDeviation=".90565481"
       id="feGaussianBlur48" />
  </filter>
  <linearGradient
     id="f"
     gradientUnits="userSpaceOnUse"
     x1="85.219681"
     x2="61.336319"
     y1="93.219681"
     y2="69.336319">
    <stop
       offset="0"
       id="stop51" />
    <stop
       offset="1"
       stop-color="#393b38"
       id="stop53" />
  </linearGradient>
  <filter
     id="g">
    <feGaussianBlur
       stdDeviation=".4901192"
       id="feGaussianBlur56" />
  </filter>
  <linearGradient
     id="h"
     gradientUnits="userSpaceOnUse"
     x1="48"
     x2="56"
     y1="104"
     y2="8">
    <stop
       offset="0"
       stop-color="#0968ef"
       id="stop59" />
    <stop
       offset="1"
       stop-color="#aecffc"
       id="stop61" />
  </linearGradient>
  <g
     id="g1091">
    <g
       id="g72"
       style="fill:none;stroke:#000000;stroke-linejoin:round">
      <path
         id="path64"
         d="m 8,16 v 102 c 0,1.104 0.896,2 2,2 h 75.1875 c 0.530003,0 1.03125,-0.21875 1.40625,-0.59375 C 86.593751,119.40625 98.5,109.5 104,104 109.5,98.5 119.40625,86.59375 119.40625,86.59375 119.78125,86.218751 120,85.7175 120,85.1875 V 16 Z"
         inkscape:connector-curvature="0"
         style="opacity:0.1;stroke-width:16" />
      <path
         id="path66"
         d="m 8,16 v 102 c 0,1.104 0.896,2 2,2 h 75.1875 c 0.530003,0 1.03125,-0.21875 1.40625,-0.59375 C 86.593751,119.40625 98.5,109.5 104,104 109.5,98.5 119.40625,86.59375 119.40625,86.59375 119.78125,86.218751 120,85.7175 120,85.1875 V 16 Z"
         inkscape:connector-curvature="0"
         style="opacity:0.15;stroke-width:12" />
      <path
         id="path68"
         d="m 8,16 v 102 c 0,1.104 0.896,2 2,2 h 75.1875 c 0.530003,0 1.03125,-0.21875 1.40625,-0.59375 C 86.593751,119.40625 98.5,109.5 104,104 109.5,98.5 119.40625,86.59375 119.40625,86.59375 119.78125,86.218751 120,85.7175 120,85.1875 V 16 Z"
         inkscape:connector-curvature="0"
         style="opacity:0.2;stroke-width:8" />
      <path
         id="path70"
         d="m 8,16 v 102 c 0,1.104 0.896,2 2,2 h 75.1875 c 0.530003,0 1.03125,-0.21875 1.40625,-0.59375 C 86.593751,119.40625 98.5,109.5 104,104 109.5,98.5 119.40625,86.59375 119.40625,86.59375 119.78125,86.218751 120,85.7175 120,85.1875 V 16 Z"
         inkscape:connector-curvature="0"
         style="opacity:0.25;stroke-width:4" />
    </g>
    <path
       id="path74"
       d="m 8,16 v 102 c 0,1.104 0.896,2 2,2 h 75.172 c 0.53,0 1.039,-0.211 1.414,-0.586 L 119.414,86.586 C 119.789,86.211 120,85.702 120,85.172 V 16 Z"
       style="fill:url(#c)"
       inkscape:connector-curvature="0" />
    <path
       id="path76"
       d="m 17,24 c -0.551,0 -1,0.449 -1,1 v 87 c 0,0.552 0.449,1 1,1 l 74.172,-1 c 0.263,0 0.521,-0.106 0.707,-0.293 L 112.707,90.879 C 112.894,90.692 113,90.435 113,90.172 V 25 c 0,-0.551 -0.448,-1 -1,-1 z"
       style="fill:url(#b)"
       inkscape:connector-curvature="0" />
    <g
       transform="matrix(0.8125,0,0,1,23.5,0)"
       id="g1042">
      <rect
         style="opacity:1;fill:#3b3b3b;fill-opacity:1;stroke:none;stroke-width:15;stroke-linecap:round;stroke-linejoin:round;stroke-miterlimit:4;stroke-dasharray:none;stroke-dashoffset:0;stroke-opacity:1"
         id="rect987"
         width="64"
         height="8"
         x="40"
         y="32" />
      <rect
         style="opacity:1;fill:#3b3b3b;fill-opacity:1;stroke:none;stroke-width:15;stroke-linecap:round;stroke-linejoin:round;stroke-miterlimit:4;stroke-dasharray:none;stroke-dashoffset:0;stroke-opacity:1"
         id="rect989"
         width="48"
         height="8"
         x="40"
         y="48" />
    </g>
    <g
       transform="matrix(0.8125,0,0,1,23.5,0)"
       id="g1046">
      <rect
         y="72"
         x="40"
         height="8"
         width="64"
         id="rect991"
         style="opacity:1;fill:#3b3b3b;fill-opacity:1;stroke:none;stroke-width:15;stroke-linecap:round;stroke-linejoin:round;stroke-miterlimit:4;stroke-dasharray:none;stroke-dashoffset:0;stroke-opacity:1" />
      <rect
         y="87.495369"
         x="39.922626"
         height="8"
         width="48"
         id="rect993"
         style="opacity:1;fill:#3b3b3b;fill-opacity:1;stroke:none;stroke-width:15;stroke-linecap:round;stroke-linejoin:round;stroke-miterlimit:4;stroke-dasharray:none;stroke-dashoffset:0;stroke-opacity:1" />
    </g>
    <g
       transform="matrix(3.7795276,0,0,3.7795276,6.8210477,-987.7897)"
       id="g4629">
      <circle
         r="1.4709573"
         cy="-272.99435"
         cx="6.6317096"
         transform="scale(1,-1)"
         id="path4368"
         style="display:inline;opacity:1;fill:none;fill-opacity:1;stroke:url(#linearGradient1038);stroke-width:5.88382959;stroke-linecap:round;stroke-linejoin:round;stroke-miterlimit:4;stroke-dasharray:none;stroke-opacity:1" />
      <circle
         r="1.4709573"
         cy="272.99435"
         cx="6.6317096"
         style="display:inline;opacity:1;fill:#bfd9ff;fill-opacity:1;stroke:none;stroke-width:1.96127641;stroke-linecap:round;stroke-linejoin:round;stroke-miterlimit:4;stroke-dasharray:none;stroke-opacity:1"
         id="path3596" />
    </g>
    <g
       id="g4635"
       transform="matrix(3.7795276,0,0,3.7795276,6.8783503,-948.04201)">
      <circle
         style="display:inline;opacity:1;fill:none;fill-opacity:1;stroke:url(#linearGradient4637);stroke-width:5.88382959;stroke-linecap:round;stroke-linejoin:round;stroke-miterlimit:4;stroke-dasharray:none;stroke-opacity:1"
         id="circle4631"
         transform="scale(1,-1)"
         cx="6.6317096"
         cy="-272.99435"
         r="1.4709573" />
      <circle
         id="circle4633"
         style="display:inline;opacity:1;fill:#bfd9ff;fill-opacity:1;stroke:none;stroke-width:1.96127641;stroke-linecap:round;stroke-linejoin:round;stroke-miterlimit:4;stroke-dasharray:none;stroke-opacity:1"
         cx="6.6317096"
         cy="272.99435"
         r="1.4709573" />
    </g>
    <g
       id="g88"
       transform="translate(8)">
      <path
         id="path80"
         d="M 111.414,86.586 C 111.664,86.336 85.035,85 80,85 c -1.654,0 -3,1.346 -3,3 0,5.035 1.336,31.664 1.586,31.414 z"
         inkscape:connector-curvature="0"
         style="opacity:0.90684904;filter:url(#d)" />
      <path
         id="path82"
         d="M 111.414,86.586 C 111.789,86.211 89.444,86 80,86 c -1.103,0 -2,0.897 -2,2 0,9.444 0.211,31.789 0.586,31.414 z"
         inkscape:connector-curvature="0"
         style="opacity:0.2;filter:url(#e)" />
      <path
         id="path84"
         d="M 111.414,86.586 C 111.653,86.347 89.807,87 80,87 c -0.553,0 -1,0.447 -1,1 0,9.807 -0.653,31.653 -0.414,31.414 z"
         style="opacity:0.1;fill:url(#f);filter:url(#g)"
         inkscape:connector-curvature="0" />
      <path
         id="path86"
         d="m 78.586,119.414 c 0,0 11.914,-9.914 17.414,-15.414 5.5,-5.5 15.414,-17.414 15.414,-17.414 0,0 -21.164,1.414 -31.414,1.414 0,10.25 -1.414,31.414 -1.414,31.414 z"
         style="fill:url(#a)"
         inkscape:connector-curvature="0" />
    </g>
  </g>
</svg>
